X:1
T:Vail, 88.88.8
T:16th Century German
T:Vail, 88.88.8
T:Public Domain
C:16th Century German
Z:Public Domain
%%score ( 1 2 ) ( 3 4 )
L:1/8
M:4/4
K:G
V:1 treble 
V:2 treble 
V:3 bass 
V:4 bass 
V:1
 [B,E]2 | [CE]2 [DB]2 [DF]2 [FA]2 | [EG]2 [^DF]2 E2 E2 | [EB]2 [G^c]2 [Fd]2 [Gc]2 | %4
 [EB]2 [F^A]2 [FB]4- | [FB]2 B2 [Be]2 [A^c]2 | [Ad]2 [GB]2 [FA]2 (ED) | [^CF]2 [^DF]2 E2 [=DB]2 | %8
 [DF]2 [EA]2 [EG]2 [DF]2 | [CE]6 [CE]2 | [B,D]2 [CE]2 [DG]2 [EA]2 | [EG]2 [^DF]2 [B,E]4- | %12
 [B,E]6 |] %13
V:2
 x2 | x8 | x4 E2 E2 | x8 | x8 | x2 B2 x4 | x6 G2 | x4 E2 x2 | x8 | x8 | x8 | x8 | x6 |] %13
V:3
 [E,G,]2 | [C,G,]2 [G,,G,]2 [D,A,]2 [A,,C]2 | [B,,B,]2 (B,A,) [E,G,]2 [A,C]2 | %3
 [G,B,]2 [E,G,]2 [D,A,]2 [E,D]2 | [G,E]2 [F,^C]2 [B,^D]4- | [B,D]2 (B,A,) [G,E]2 [A,E]2 | %6
 [F,D]2 [G,D]2 [D,D]2 [E,B,]2 | [F,^A,]2 [B,,B,]2 [E,G,]2 G,2 | [D,A,]2 [A,,C]2 [E,B,]2 (B,A,) | %9
 [C,G,]6 [E,G,]2 | G,2 [C,G,]2 [B,,G,]2 [A,,C]2 | [B,,B,]2 (B,A,) [E,G,]4- | [E,G,]6 |] %13
V:4
 x2 | x8 | x2 B,,2 x4 | x8 | x8 | x2 ^D2 x4 | x8 | x6 G,2 | x6 B,,2 | x8 | G,2 x6 | x2 B,,2 x4 | %12
 x6 |] %13

